X: 06001
T: ANGELA'S REEL
C: Bob McQuillen 25 Feb 82
B: Bob's Note Book 6 #1
%R: reel
Z: 2021 John Chambers <jc:trillian.mit.edu>
M: C
L: 1/8
K: D
AG \
| FDA,D FAdc | BGBd edcB | AFDF Adfd | cdef e2AG |
| FDA,D FAdc | BGBd edce | dBAF GBAG | F2D2 D2 :|
|: AG \
| FAde fdBd | ABdf edBd | AFAd fdBd | edcB AGFE |
| DFAF DFAB | AFAd BGBd | cAce dfeg | f2d2 d2 :|
%%begintext align
%% Angela Toppan is Bob's
%% daughter, and I've known her ever since she was, and
%% him long before _that_, and it's about time I wrote you
%% a tune to dance to, Angela! I hope you like it ...
%%endtext

%%sep 1 1 500

%%sep 1 1 500

